X:123
T:Glass of Beer
Z: id:dc-reel-378
M:C
L:1/8
K:B Minor
de|fBB2 fBaB|fBB2 e2de|fBB2 fgfe|dfaf e2:|!
dc|d3e fgfe|defd edBc|d3e fgfe|dfaf e2:|!

